X: 1
T:Reel de L'Enfant
M:2/4
L:1/16
C:Trad.
S:The Schryer Triplets
R:Reel
K:G
d|gfgb afdg|ecdc BGBd|gfgb afdf|egfa g2d2|!
gfgb afdg|ecdc BGBd|bgaf gedB|ceAc BGG2||!
|GDB,D DGBG|cGBG AGAB|GDB,D DGBG|ceAc BGG2|!
GDB,D DGBG|cGBG AGAB|GDB,D DGBG|ceAc BGG2||!
